src/images/single-assets/TETHYS.svg

<svg width="146" height="146" viewBox="0 0 146 146" fill="none" xmlns="http://www.w3.org/2000/svg">
<path d="M72.9602 145.92C113.255 145.92 145.92 113.255 145.92 72.9602C145.92 32.6654 113.255 0 72.9602 0C32.6654 0 0 32.6654 0 72.9602C0 113.255 32.6654 145.92 72.9602 145.92Z" fill="#CCB175"/>
<path d="M118.678 84.9629L125.152 81.7262C126.231 81.1868 126.5 79.7033 125.691 78.7593L117.599 58.9346C116.386 55.9676 115.711 53.0007 115.442 49.764C113.284 22.5219 90.3574 1.21375 62.441 1.61834C34.3898 2.02292 11.4633 24.8146 10.9238 53.0007C10.5192 77.9501 27.5118 98.9885 50.5732 104.653L47.8759 106.136L30.2091 145.786H78.3547L90.2225 119.757C91.5712 116.79 94.673 115.037 97.9097 115.172L108.833 116.116C112.475 116.386 115.442 113.554 115.307 109.912L115.172 106.406C115.172 103.978 115.846 101.686 117.195 99.6628V98.9885C117.195 97.6399 116.116 96.4262 114.767 96.1564C110.047 95.3473 107.35 93.0546 107.35 93.0546C110.587 93.0546 114.498 92.65 117.06 92.2454C118.544 92.1106 119.622 90.6271 119.353 89.1436L118.678 84.9629Z" fill="white"/>
<path d="M64.1941 106.136L84.9628 62.7107C100.337 60.2832 109.912 30.4788 108.968 28.7255C106.406 23.8705 104.113 21.3082 101.686 18.6109C91.8408 7.41739 78.0849 1.34861 62.5758 1.61834C34.1199 1.88806 10.9237 25.354 10.9237 53.9447C10.9237 68.1052 16.5879 81.0519 25.7585 90.3574C11.0586 91.4363 -0.404696 103.709 -0.000110388 118.678C0.404475 133.378 12.2723 145.381 26.9722 145.786C38.3006 146.055 48.1455 139.717 52.7308 130.276C52.7308 130.142 52.8657 130.007 52.8657 129.872L64.1941 106.136Z" fill="#0000AE"/>
<path d="M79.0291 14.9697C75.7924 27.7815 69.0494 39.7842 60.0136 49.4943L78.0851 40.4585C69.9934 58.3951 56.9118 72.4208 40.9981 77.6804L56.7769 77.1409C44.3697 89.6831 27.7817 93.0546 12.4074 87.6601C12.4074 87.6601 12.2726 87.6601 12.2726 87.5253C6.33863 85.3675 5.25974 76.4666 10.2496 72.2859L79.0291 14.9697Z" fill="white"/>
<path d="M107.89 67.1612C109.677 67.1612 111.126 64.746 111.126 61.7667C111.126 58.7874 109.677 56.3722 107.89 56.3722C106.102 56.3722 104.653 58.7874 104.653 61.7667C104.653 64.746 106.102 67.1612 107.89 67.1612Z" fill="#0000AE"/>
</svg>

<svg xmlns="http://www.w3.org/2000/svg" width="146" height="146" fill="none"><path fill="#CCB175" d="M72.96 145.92c40.295 0 72.96-32.665 72.96-72.96S113.255 0 72.96 0 0 32.665 0 72.96s32.665 72.96 72.96 72.96"/><path fill="#fff" d="m118.678 84.963 6.474-3.237c1.079-.54 1.348-2.023.539-2.967l-8.092-19.824c-1.213-2.967-1.888-5.934-2.157-9.171-2.158-27.242-25.085-48.55-53.001-48.146-28.051.405-50.978 23.197-51.517 51.383-.405 24.95 16.588 45.988 39.65 51.652l-2.698 1.483-17.667 39.65h48.146l11.867-26.029c1.35-2.967 4.451-4.72 7.688-4.585l10.923.944c3.642.27 6.609-2.562 6.474-6.204l-.135-3.506c0-2.428.674-4.72 2.023-6.743v-.674c0-1.35-1.079-2.563-2.428-2.833-4.72-.809-7.417-3.101-7.417-3.101 3.237 0 7.148-.405 9.71-.81 1.484-.134 2.562-1.618 2.293-3.101z"/><path fill="#0000AE" d="m64.194 106.136 20.769-43.425c15.374-2.428 24.949-32.232 24.005-33.985-2.562-4.855-4.855-7.418-7.282-10.115C91.841 7.417 78.085 1.349 62.576 1.618c-28.456.27-51.652 23.736-51.652 52.327 0 14.16 5.664 27.107 14.835 36.412-14.7 1.08-26.164 13.352-25.76 28.321.405 14.7 12.273 26.703 26.973 27.108 11.329.269 21.173-6.069 25.759-15.51 0-.134.135-.269.135-.404z"/><path fill="#fff" d="M79.03 14.97c-3.238 12.812-9.98 24.814-19.016 34.524l18.071-9.035C69.993 58.395 56.912 72.42 40.998 77.68l15.779-.54C44.37 89.684 27.782 93.056 12.407 87.66c0 0-.134 0-.134-.135-5.934-2.157-7.013-11.058-2.023-15.24z"/><path fill="#0000AE" d="M107.89 67.161c1.787 0 3.236-2.415 3.236-5.394s-1.449-5.395-3.236-5.395-3.237 2.415-3.237 5.395 1.449 5.394 3.237 5.394"/></svg>
